static/svg/icons/icon-linkedin.svg

<?xml version="1.0" encoding="UTF-8"?>
<svg width="22px" height="20px" viewBox="0 0 22 20" version="1.1" xmlns="http://www.w3.org/2000/svg" xmlns:xlink="http://www.w3.org/1999/xlink">
    <!-- Generator: Sketch 57.1 (83088) - https://sketch.com -->
    <title>icon-linkedin</title>
    <desc>Created with Sketch.</desc>
    <g id="Website-CakeDefi.com" stroke="none" stroke-width="1" fill="none" fill-rule="evenodd">
        <g id="icon-linkedin" transform="translate(-1.000000, -2.000000)">
            <polygon id="Path" points="0 0 24 0 24 24 0 24"></polygon>
            <path d="M23.0000105,22 L18.1377045,22 L18.1377045,14.969195 C18.1377045,13.128895 17.3771195,11.87257 15.7046145,11.87257 C14.4253345,11.87257 13.7139045,12.720365 13.3827645,13.53742 C13.2585875,13.8306905 13.2779905,14.23922 13.2779905,14.64775 L13.2779905,22 L8.4609655,22 C8.4609655,22 8.523054,9.5456 8.4609655,8.4135 L13.2779905,8.4135 L13.2779905,10.54579 C13.5625625,9.61347 15.1018355,8.28287 17.5582105,8.28287 C20.6057155,8.28287 23.0000105,10.23715 23.0000105,14.44537 L23.0000105,22 L23.0000105,22 L23.0000105,22 Z M3.5896045,6.714095 L3.55856,6.714095 C2.00635,6.714095 1,5.675485 1,4.35897 C1,3.01684 2.0361,2 3.619355,2 C5.201315,2 6.174035,3.01428 6.20508,4.355125 C6.20508,5.67164 5.201315,6.714095 3.589605,6.714095 L3.589605,6.714095 L3.589605,6.714095 L3.5896045,6.714095 Z M1.5549145,8.413525 L5.8428945,8.413525 L5.8428945,22.000025 L1.5549145,22.000025 L1.5549145,8.413525 L1.5549145,8.413525 Z" id="Shape" fill="#FFFFFF"></path>
        </g>
    </g>
</svg>

<svg width="22" height="20" xmlns="http://www.w3.org/2000/svg"><g transform="translate(-1 -2)" fill="none" fill-rule="evenodd"><path d="M0 0L24 0 24 24 0 24z"/><path d="M23 22h-4.862v-7.03c0-1.841-.76-3.097-2.433-3.097-1.28 0-1.991.847-2.322 1.664-.124.294-.105.702-.105 1.11V22H8.461s.062-12.454 0-13.586h4.817v2.132c.285-.933 1.824-2.263 4.28-2.263 3.048 0 5.442 1.954 5.442 6.162V22zM3.59 6.714h-.031C2.006 6.714 1 5.675 1 4.36 1 3.017 2.036 2 3.62 2 5.2 2 6.173 3.014 6.204 4.355c0 1.317-1.004 2.36-2.615 2.36zm-2.035 1.7h4.288V22H1.555V8.414z" fill="#FFF"/></g></svg>
